src/icons/nuclear.svg

<svg xmlns="http://www.w3.org/2000/svg" width="512" height="512" viewBox="0 0 512 512">
    <circle cx="256" cy="200" r="34.3"/>
    <circle cx="256" cy="200" r="34.3"/>
    <path d="M416 260.9H301.7c0 17.1-9.4 31.9-23.3 39.8l55.9 97.4c48.2-27.6 81.7-77.7 81.7-137.2zm-160-45.7c8.4 0 16.2 2.3 22.9 6.2l57.6-98.8c-23.6-13.8-51.1-21.7-80.5-21.7s-57.1 8-80.8 21.9l57 99.1c6.9-4.3 15.1-6.7 23.8-6.7zm-45.7 45.7H96c0 59.5 33.5 109.6 81.7 137.1l55.9-97.4c-14-7.8-23.3-22.6-23.3-39.7z"/>
</svg>

<?xml version="1.0" encoding="UTF-8"?>
<svg width="512px" height="512px" viewBox="0 0 512 512" version="1.1" xmlns="http://www.w3.org/2000/svg" xmlns:xlink="http://www.w3.org/1999/xlink">
    <!-- Generator: Sketch 62 (91390) - https://sketch.com -->
    <title>nuclear</title>
    <desc>Created with Sketch.</desc>
    <g id="nuclear" stroke="none" stroke-width="1" fill="none" fill-rule="evenodd">
        <circle id="Oval" fill="#000000" fill-rule="nonzero" cx="256" cy="200" r="34.3"></circle>
        <circle id="Oval" fill="#000000" fill-rule="nonzero" cx="256" cy="200" r="34.3"></circle>
        <path d="M416,260.9 L301.7,260.9 C301.7,278 292.3,292.8 278.4,300.7 L334.3,398.1 C382.5,370.5 416,320.4 416,260.9 Z M256,215.2 C264.4,215.2 272.2,217.5 278.9,221.4 L336.5,122.6 C312.9,108.8 285.4,100.9 256,100.9 C226.6,100.9 198.9,108.9 175.2,122.8 L232.2,221.9 C239.1,217.6 247.3,215.2 256,215.2 Z M210.3,260.9 L96,260.9 C96,320.4 129.5,370.5 177.7,398 L233.6,300.6 C219.6,292.8 210.3,278 210.3,260.9 L210.3,260.9 Z" id="Shape" fill="#000000" fill-rule="nonzero"></path>
    </g>
</svg>
